X:1
T:O Kerstnacht
T:O Kerstnacht
T:anonymus
C:anonymus
%%score [ 1 2 3 4 ]
L:1/8
Q:1/4=120
M:4/4
K:C
V:1 treble nm="Soprano" snm="S"
V:2 treble nm="Alto" snm="A"
V:3 treble-8 nm="Tenor" snm="T"
V:4 bass nm="Bass" snm="B"
V:1
"^O     Kerst-                  nacht,schoonder dan  de   da-             gen,  hoe   kan He-ro-des" z2 A2 A>G F>E | %1
 D2 d2 ^F3 F | G2 G2 A3 G/F/ | E3 E ^F>G A>A | B>c d3 e/f/ ed | ^c4 d3"^-natural" c/B/ | A3 B c4 | %7
 _B2 A2 G3 F | F6 A2 |[M:3/2] d6 d2 B2 G2 | %10
"^licht ver-dra-           gen      dat       in        u         dui-ster-nis-    se blinckt, en     wort   ge- viert en" c6 c2 _B4 | %11
 A6 A2 G2 A2 | _B4 A4 G2 A2 |[M:4/4] F3 G A3 G/F/ | E8 | z2 AB ^c4 | d3 c/B/ A3 A | G>A F>G E3 D | %18
 D8 |] %19
V:2
 z2 E2 F>G A>G | ^F2 F2 A3 A | D2 E2 CD/E/ FG | A3 ^C D>D E>F | %4
"^licht ver-dra-              gen   dat___    in___  u         dui-ster-nis-  se blinckt,   en    wort    ge- viert   en" D>A F3 E/D/ G2 | %5
 A4 A4 | ^F4 A4 | GF F3 E/D/ EC | C6 C2 |[M:3/2] F6 A2 G2 D2 | %10
"^aen-        ge-be-       den?  Sijn hooghmoet luistert     na geen      re-                              den," A6 A2 G4 | %11
 F6 E2 D2 E2 | F2 G2 E4 E2 E2 |[M:4/4] D3 E F3 E/D/ | ^C8 | %15
"^hoe   schel             die______   in        zijn    o-                                      ren   klinkt." z2 ^FG A4 | %16
 A4 F3 F | E>F D>E ^C3 A, | A,8 |] %19
V:3
"^O     Kerst-                 nacht,schoonder dan   de   da-             gen, hoe     kan He-ro-des" z2 ^c2 d4 | %1
 A4 A3 d | B3 c ABcd | ^c3 A A>B c>d | %4
"^licht ver-dra-             gen     dat       in        u        duisternis-      se  blinckt,  en      wort  ge- viert   en" B>A d6 | %5
 e4 ^f4 | d4 e2 fe | d2 c2 c3 A | A6 A2 |[M:3/2] A6 A2 d2 B2 | %10
"^aen-        ge-be-       den?  Sijn hooghmoet luistert   na geen      re-                              den""^aen-        ge-be-      den?   Sijn hooghmoet lui-stert  na geen      re-                               den," e6 f2 d4 | %11
 d6 ^c2 d2 c2 | d4 c4 B2 A2 |[M:4/4] A3 G F3 G |"^den," A8 | %15
"^hoe    schel             die              in         zijn    o-                                      ren   klinkt." z2 d2 e4 | %16
 ^f4 d3 c | c>c _B>B A3 ^F | ^F8 |] %19
V:4
"^O      Kerst-         nacht,    schoon-der dan      de da-             gen""^O     Kerst-              nacht schoonder dan   de    da-             gen,  hoe kan He-ro-des" z2 A,2 D,4- | %1
 D,2 D,2 D,3 D, | G,2 E,2 F,3 E,/D,/ |"^hoe kan He-ro-des""^," A,2 A,,2 D,>B,, A,,>D, | %4
"^licht ver-dra-            gen     dat       in        u   dui-      ster-nis-    se blinckt,  en     wort   ge- viert en" G,>F, _B,6 | %5
 A,4 D,4 | D,4 A,,4 | _B,,2 F,,2 C,3 F, | F,6 F,2 |[M:3/2]"^den," D,6 ^F,2 G,2 G,2 | A,6 F,2 G,4 | %11
 D,6 A,2 _B,2 A,2 | G,4 A,4 E,2 ^C,2 |[M:4/4] D,8 |"^den," A,,8 | %15
"^Notes:  1) original keys: Ut 1 st, Ut 3rd, Ut 4rth, Fa 4rth\n            2)  m7 Alto: \"sol\" in original for \"la\"""^hoe  schel              die               in          zijn   o-                                      ren    klinkt." z2 D,2 A,4 | %16
 D,4 D,3 F, | C,>A,, _B,,>G,, A,,3 D, | D,8 |] %19

